X: 1
P: The Farmer's Daughter (Aberarder's Rant)
C: as played by Winston Fitzgerald
C: arr. T. Traub 4-26-2004
R: Reel
K: D
M: 4/4
L: 1/8
B|"D"d2 de f2 ef|"D"dedB d/d/d AB|"D"d2 de f2 ea|"A"cAeA cAAB|"D"d de f2 ef|
"D"dedB d/d/d dg|"D"fgag f2 ef|"A"A/A/A eA "F#m"cAAc||"Bm"d2 f2 B/B/B fB|"Bm"cBfB "E"cBBc|
"A"D2 eA A/A/A eA|"A"cAeA "F#m"cAAc|"Bm"d2 f2 B/B/B eB|"Bm"cBfB "A"cBBc|"D"d2 ag f2 ef|"A"A/A/A eA cAA |]
